X: 41945
T: Walking On The Moon
R: reel
M: 4/4
K: Amajor
|:(ce)|a2 a2 feec|e2 e2 cBBc|A2 A2 ceee|feec e2 (fg)|
a2 a2 feec|e2 e2 cBBc|A2 A2 ceec|BccB A2:|
|:(AB)|c2 c2 BAAc|e2 e2 fece|a2 a2 feec|feec B2 (AB)|
c2 c2 BAAc|e2 e2 fece|a2 a2 feec BccB|A2:|

